.local/share/icons/Gruvbox-Plus-Dark/mimetypes/scalable/application-x-gnonogram-puzzle.svg

<svg width="256" height="256" viewBox="0 0 256 256" fill="none" xmlns="http://www.w3.org/2000/svg">
<g opacity="0.4" filter="url(#filter0_f)">
<path d="M55.0839 15.5636H155.608L216.009 75.7129L216.011 224.609C216.011 233.52 208.749 240.737 199.838 240.737H55.0838C46.1734 240.737 39 233.564 39 224.654V31.6474C39 22.737 46.1734 15.5636 55.0838 15.5636H55.0839Z" fill="#282828"/>
</g>
<path d="M55.0839 15H155.608L216.009 75.1493L216.011 224.045C216.011 232.956 208.749 240.174 199.838 240.174H55.0838C46.1734 240.174 39 233 39 224.09V31.0838C39 22.1734 46.1734 15 55.0838 15H55.0839Z" fill="#ebdbb2"/>
<path fill-rule="evenodd" clip-rule="evenodd" d="M155.609 22.9787H55.0839C50.58 22.9787 46.9787 26.5799 46.9787 31.0838V224.09C46.9787 228.594 50.5799 232.195 55.0838 232.195H199.838C204.371 232.195 208.032 228.521 208.032 224.046V75.1493L155.609 22.9787ZM155.608 15H55.0839C46.1735 15 39 22.1734 39 31.0838V224.09C39 233 46.1734 240.174 55.0838 240.174H199.838C208.749 240.174 216.011 232.956 216.011 224.045L216.009 75.1493L155.608 15Z" fill="url(#paint0_linear)"/>
<path d="M111.963 172.842C111.576 168.225 116.013 163.862 122.216 163.624C123.302 163.622 124.465 163.784 125.693 164.058C127.141 164.382 129.162 164.438 130.378 164.54C130.804 164.256 130.783 163.991 130.224 162.583C128.561 158.399 125.141 153.732 120.794 152.443C119.875 152.171 118.486 152.005 117.14 151.976C108.135 152.207 101.57 160.843 97.4669 167.292C96.1544 169.343 94.6167 171.653 94.0498 172.425C91.1574 176.364 87.7817 178.613 84.3902 179.6C83.1091 179.973 80.033 180.126 78.7543 179.881C71.959 178.577 67.4189 172.092 68.0603 165.148C68.114 164.562 68.1993 164.086 68.2489 164.09C68.2994 164.094 68.57 164.405 68.8514 164.779C70.0175 166.333 72.5615 167.279 74.5552 167.754C76.039 168.108 77.4898 168.162 78.8776 167.917C82.6349 167.252 85.0366 165.67 88.9593 160.35C94.9014 152.292 99.137 144.909 107.477 126.723C112.98 114.727 115.989 108.721 119.284 103.161C123.53 95.9951 128.007 90.2302 132.205 86.5184C138.624 80.8445 146.228 77.4125 154.967 76.2448C157.599 75.8922 162.154 75.9253 164.642 76.3135C173.57 77.7063 180.437 82.1918 184.662 89.391C186.025 91.7132 187.198 95.0078 187.74 98.0343C188.086 99.9651 188.087 104.268 187.741 106.208C187.457 107.8 186.738 110.403 186.25 111.605L185.916 112.428L185.9 110.944C185.835 104.688 181.765 97.8688 175.677 96.1648C174.485 95.8313 174.113 95.7916 172.224 95.7974C170.372 95.8015 169.935 95.8495 168.744 96.1731C161.916 98.0269 155.354 106.87 153.114 115.842C151.469 122.426 151.728 129.682 153.884 137.467C155.909 144.781 165.612 154.701 167.598 156.174C174.645 161.4 179.401 163.173 184.791 166.921C186.649 168.205 187.168 168.853 187.336 170.092C187.542 171.62 186.613 173.048 184.264 174.81C183.615 175.297 182.388 176.253 181.54 176.934C178.721 179.195 178.378 179.8 176.484 179.81C175.407 179.814 175.158 179.768 174.476 179.428C172.296 178.342 171.398 176.825 172.453 174.65C173.431 172.632 175.652 171.704 177.754 172.433C178.23 172.597 178.752 172.94 179.276 173.432C180.126 174.232 179.751 173.307 179.997 172.84C180.263 172.336 180.311 170.572 180.091 169.42C179.314 165.367 175.749 163.708 171.745 163.929C169.412 164.058 167.191 165.124 165.34 167.005C161.42 172.708 156 179.86 150.004 179.779C148.97 179.895 147.955 179.803 147.154 179.49C146.547 179.253 145.944 178.829 145.416 178.288C143.922 176.797 144.085 175.204 144.227 173.285C144.389 171.109 145.733 169.469 147.02 168.25C148.887 166.713 150.787 166.084 152.846 165.872C155.429 165.623 157.831 165.414 160.173 166.037C161.473 166.459 161.905 166.468 162.053 166.073C162.275 165.487 161.05 160.653 160.034 159.231C158.353 156.876 156.682 155.917 153.895 155.096C152.612 154.719 149.596 154.579 148.073 154.827C139.569 156.434 136.728 162.769 133.357 168.725C129.461 175.546 125.891 178.145 122.232 179.415C121.698 179.6 120.974 179.733 120.227 179.803C115.32 180.266 112.325 177.162 111.963 172.842V172.842Z" fill="url(#paint1_linear)"/>
<path opacity="0.25" d="M155.608 17V61.2306C155.608 70.141 162.867 77.1605 171.777 77.1605L216.009 77.1493V75.1493L155.608 17Z" fill="#282828"/>
<path d="M155.608 15V59.2306C155.608 68.141 162.867 75.1605 171.777 75.1605L216.009 75.1493L155.608 15Z" fill="url(#paint2_linear)"/>
<defs>
<filter id="filter0_f" x="23.8778" y="0.441412" width="207.255" height="255.418" filterUnits="userSpaceOnUse" color-interpolation-filters="sRGB">
<feFlood flood-opacity="0" result="BackgroundImageFix"/>
<feBlend mode="normal" in="SourceGraphic" in2="BackgroundImageFix" result="shape"/>
<feGaussianBlur stdDeviation="7.5611" result="effect1_foregroundBlur"/>
</filter>
<linearGradient id="paint0_linear" x1="39" y1="15" x2="39" y2="240.174" gradientUnits="userSpaceOnUse">
<stop offset="1e-07" stop-color="#b16286"/>
<stop offset="1" stop-color="#8f3f71"/>
</linearGradient>
<linearGradient id="paint1_linear" x1="68" y1="76.0001" x2="68" y2="180" gradientUnits="userSpaceOnUse">
<stop offset="1e-07" stop-color="#b16286"/>
<stop offset="1" stop-color="#8f3f71"/>
</linearGradient>
<linearGradient id="paint2_linear" x1="197" y1="-24.5" x2="132" y2="88" gradientUnits="userSpaceOnUse">
<stop offset="1e-07" stop-color="#b16286"/>
<stop offset="1" stop-color="#8f3f71"/>
</linearGradient>
</defs>
</svg>

<svg width="256" height="256" fill="none" version="1.1" viewBox="0 0 256 256" xmlns="http://www.w3.org/2000/svg">
  <path d="m55.08 15h100.5l60.4 60.15 2e-3 148.9c0 8.911-7.262 16.13-16.17 16.13h-144.8c-8.91 0-16.08-7.174-16.08-16.08v-193c0-8.91 7.173-16.08 16.08-16.08h1e-4z" fill="#ebdbb2"/>
  <path d="m155.6 22.98h-100.5c-4.504 0-8.105 3.601-8.105 8.105v193c0 4.504 3.601 8.105 8.105 8.105h144.8c4.533 0 8.194-3.674 8.194-8.149v-148.9l-52.42-52.17zm-1e-3 -7.979h-100.5c-8.91 0-16.08 7.173-16.08 16.08v193c0 8.91 7.173 16.08 16.08 16.08h144.8c8.911 0 16.17-7.218 16.17-16.13l-2e-3 -148.9-60.4-60.15z" clip-rule="evenodd" fill="url(#paint0_linear)" fill-rule="evenodd"/>
  <path d="m112 172.8c-0.387-4.617 4.05-8.98 10.25-9.218 1.086-2e-3 2.249 0.16 3.477 0.434 1.448 0.324 3.469 0.38 4.685 0.482 0.426-0.284 0.405-0.549-0.154-1.957-1.663-4.184-5.083-8.851-9.43-10.14-0.919-0.272-2.308-0.438-3.654-0.467-9.005 0.231-15.57 8.867-19.67 15.32-1.312 2.051-2.85 4.361-3.417 5.133-2.892 3.939-6.268 6.188-9.66 7.175-1.281 0.373-4.357 0.526-5.636 0.281-6.795-1.304-11.34-7.789-10.69-14.73 0.0537-0.586 0.139-1.062 0.1886-1.058 0.0505 4e-3 0.3211 0.315 0.6025 0.689 1.166 1.554 3.71 2.5 5.704 2.975 1.484 0.354 2.935 0.408 4.322 0.163 3.757-0.665 6.159-2.247 10.08-7.567 5.942-8.058 10.18-15.44 18.52-33.63 5.503-12 8.512-18 11.81-23.56 4.246-7.166 8.723-12.93 12.92-16.64 6.419-5.674 14.02-9.106 22.76-10.27 2.632-0.3526 7.187-0.3195 9.675 0.0687 8.928 1.393 15.8 5.878 20.02 13.08 1.363 2.322 2.536 5.617 3.078 8.643 0.346 1.931 0.347 6.234 1e-3 8.174-0.284 1.592-1.003 4.195-1.491 5.397l-0.334 0.823-0.016-1.484c-0.065-6.256-4.135-13.08-10.22-14.78-1.192-0.3335-1.564-0.3732-3.453-0.3674-1.852 0.0041-2.289 0.0521-3.48 0.3757-6.828 1.854-13.39 10.7-15.63 19.67-1.645 6.584-1.386 13.84 0.77 21.62 2.025 7.314 11.73 17.23 13.71 18.71 7.047 5.226 11.8 6.999 17.19 10.75 1.858 1.284 2.377 1.932 2.545 3.171 0.206 1.528-0.723 2.956-3.072 4.718-0.649 0.487-1.876 1.443-2.724 2.124-2.819 2.261-3.162 2.866-5.056 2.876-1.077 4e-3 -1.326-0.042-2.008-0.382-2.18-1.086-3.078-2.603-2.023-4.778 0.978-2.018 3.199-2.946 5.301-2.217 0.476 0.164 0.998 0.507 1.522 0.999 0.85 0.8 0.475-0.125 0.721-0.592 0.266-0.504 0.314-2.268 0.094-3.42-0.777-4.053-4.342-5.712-8.346-5.491-2.333 0.129-4.554 1.195-6.405 3.076-3.92 5.703-9.34 12.86-15.34 12.77-1.034 0.116-2.049 0.024-2.85-0.289-0.607-0.237-1.21-0.661-1.738-1.202-1.494-1.491-1.331-3.084-1.189-5.003 0.162-2.176 1.506-3.816 2.793-5.035 1.867-1.537 3.767-2.166 5.826-2.378 2.583-0.249 4.985-0.458 7.327 0.165 1.3 0.422 1.732 0.431 1.88 0.036 0.222-0.586-1.003-5.42-2.019-6.842-1.681-2.355-3.352-3.314-6.139-4.135-1.283-0.377-4.299-0.517-5.822-0.269-8.504 1.607-11.34 7.942-14.72 13.9-3.896 6.821-7.466 9.42-11.12 10.69-0.534 0.185-1.258 0.318-2.005 0.388-4.907 0.463-7.902-2.641-8.264-6.961z" fill="url(#paint1_linear)"/>
  <path d="m155.6 17v44.23c0 8.91 7.259 15.93 16.17 15.93l44.23-0.0112v-2l-60.4-58.15z" fill="#282828" opacity=".25"/>
  <path d="m155.6 15v44.23c0 8.91 7.259 15.93 16.17 15.93l44.23-0.0112-60.4-60.15z" fill="url(#paint2_linear)"/>
  <defs>
    <linearGradient id="paint0_linear" x1="39" x2="39" y1="15" y2="240.2" gradientUnits="userSpaceOnUse">
      <stop stop-color="#b16286" offset="1e-7"/>
      <stop stop-color="#8f3f71" offset="1"/>
    </linearGradient>
    <linearGradient id="paint1_linear" x1="68" x2="68" y1="76" y2="180" gradientUnits="userSpaceOnUse">
      <stop stop-color="#b16286" offset="1e-7"/>
      <stop stop-color="#8f3f71" offset="1"/>
    </linearGradient>
    <linearGradient id="paint2_linear" x1="197" x2="132" y1="-24.5" y2="88" gradientUnits="userSpaceOnUse">
      <stop stop-color="#b16286" offset="1e-7"/>
      <stop stop-color="#8f3f71" offset="1"/>
    </linearGradient>
  </defs>
</svg>
